X:1
T:Ding Dong Merrily on High
T:Harmony by Edward L. Stauff
T:Ding Dong Merrily on High
T:Courtesy of the Cyber Hymnal&amp;#8482;
T:Courtesy of the Cyber Hymnal&amp;#8482;
C:Harmony by Edward L. Stauff
Z:Courtesy of the Cyber Hymnal&#8482;
%%score ( 1 2 ) ( 3 4 )
L:1/8
M:4/4
K:G
V:1 treble 
V:2 treble 
V:3 bass 
V:4 bass 
V:1
 [DG]2 [DG]2 [EA][EG][CF][CE] | [A,D]4 z2 D2 | [CE]2 [CG]2 G2 (z C) x | [B,G]4 [B,G]2 z2 | %4
w: 1.~Ding dong! Mer- ri- ly on|high, in|the bells are *|* Ding|
w: 2.~E’en so here be- low, be-|low, let|ple bells be *|* And|
w: 3.~Pray ye du- ti- ful- ly,|prime your|tin chime, ye *|* May|
 [DG]2 [DG]2 [EA][EG][CF][CE] | [A,D]4 z2 D2 | [CE]2 [CG]2 G2 (z C) x | [B,G]4 [B,G]2 z2 | %8
w: dong! Ver- i- ly the sky|is riv’n|an- gel sing- *|* ri-|
w: i- o, i- o, i- o,|by priest|peo- ple sung- *|* ri-|
w: ye beau- ti- ful- ly rime|your eve-|song, ye sing- *|* ri-|
 GAB[Ac] [GB][Ac][Bd][GB] | c3 B [FA][GB][Ac][FA] | B3 A [EG][FA][GB][EG] | %11
w: a, * * * * * * *|ho- * * * * *|san- * * * * *|
w: a, * * * * * * *|ho- * * * * *|san- * * * * *|
w: a, * * * * * * *|ho- * * * * *|san- * * * * *|
 CD z G [DF][EG][FA][DF] | B,C z F [CE][DF][EG][CE] | [DF]3 [DE] [A,D]2 D2 | %14
w: nah * * * * * *||* high- est! *|
w: nah * * * * * *||* high- est! *|
w: nah * * * * * *||* high- est! *|
 [CE]2 [CG]2 G2 (z C) x | [B,G]4 [B,G]2 z2 |] %16
w: ||
w: ||
w: ||
V:2
 x8 | x6 D2 | x4 D3 F2 | x8 | x8 | x6 D2 | x4 D3 F2 | x8 | d3 x5 | E4 x4 | D4 x4 | A3 (E2 x3 | %12
w: |Heav’n|ring- ing,|||with|ing. Glo-|||||* in|
w: |stee-|swung- en,|||and|en. Glo-|||||* in|
w: |ma-|rin- gers;|||time|ers. Glo-|||||* in|
 G3) D2 x3 | x6 D2 | x4 D3 F2 | x8 |] %16
w: * the||||
w: * the||||
w: * the||||
V:3
 [G,B,]2 [G,B,]2 [C,C][C,B,][C,A,][C,G,] | [D,F,]4 z2 [B,,G,]2 | %2
 [C,G,]2 [A,,A,]2 [D,A,]2 [D,A,]2 x | [G,,G,]4 [G,,G,]2 z2 | %4
 [G,B,]2 [G,B,]2 [C,C][C,B,][C,A,][C,G,] | [D,F,]4 z2 [B,,G,]2 | %6
 [C,G,]2 [A,,A,]2 [D,A,]2 [D,A,]2 x | [G,,G,]4 [G,,G,]2 z2 | B,C D2 E2 B,2 | A,B, C2 D2 A,2 | %10
 G,A, B,2- B,2 G,2 | A,B, C2 D2 A,2 | G,A,B,A, G,2 C2 | [D,A,]3 [D,G,] [D,F,]2 [B,,G,]2 | %14
 [C,G,]2 [A,,A,]2 [D,A,]2 [D,A,]2 x | [G,,G,]4 [G,,G,]2 z2 |] %16
V:4
 x8 | x8 | x9 | x8 | x8 | x8 | x9 | x8 | G,4 E,4 | A,,4 D,4 | G,4 E,4 | A,,4 D,4 | G,4 C,4 | x8 | %14
 x9 | x8 |] %16

